resources/haticons/SVG/bin2.svg

<!-- Generated by IcoMoon.io -->
<svg version="1.1" xmlns="http://www.w3.org/2000/svg" width="24" height="24" viewBox="0 0 24 24">
<title>bin2</title>
<path d="M4.5 24h15l1.5-16.5h-18zM15 3v-3h-6v3h-7.5v4.5l1.5-1.5h18l1.5 1.5v-4.5h-7.5zM13.5 3h-3v-1.5h3v1.5z"></path>
</svg>

<svg xmlns="http://www.w3.org/2000/svg" width="24" height="24"><path d="M4.5 24h15L21 7.5H3zM15 3V0H9v3H1.5v4.5L3 6h18l1.5 1.5V3H15zm-1.5 0h-3V1.5h3V3z"/></svg>
